src/img/icons/devices/media-flash-sd-mmc.svg

<svg xmlns="http://www.w3.org/2000/svg" width="384pt" height="384pt" version="1.1" viewBox="0 0 384 384"> <g> <path style="fill:rgb(100.000%,100.000%,100.000%)" d="M 103.425781 338.253906 C 98.632812 337.953125 96.117188 336.859375 93.292969 333.859375 C 90.640625 331.042969 89.382812 328.054688 88.957031 323.582031 C 88.542969 319.238281 88.445312 228.417969 88.84375 220.445312 L 89.109375 215.160156 L 292.839844 215.160156 L 292.839844 269.390625 C 292.839844 304.339844 292.691406 324.410156 292.425781 325.839844 C 291.535156 330.613281 289.03125 334.019531 284.359375 336.804688 L 281.257812 338.652344 L 194.378906 338.582031 C 146.59375 338.542969 105.664062 338.398438 103.425781 338.253906 Z M 103.425781 338.253906"/> <path style="fill:rgb(97.254%,87.058%,40.784%)" d="M 195.839844 46.285156 C 194.4375 46.28125 192.894531 46.289062 191.234375 46.308594 C 180.398438 46.441406 180.394531 46.441406 179.167969 47.476562 C 178.492188 48.046875 177.75 48.953125 177.519531 49.492188 C 177.050781 50.59375 176.929688 120.292969 177.394531 122.390625 C 177.75 124.007812 179.503906 125.667969 181.421875 126.214844 C 182.242188 126.445312 187.140625 126.550781 193.015625 126.460938 C 202.394531 126.3125 203.308594 126.234375 204.75 125.425781 C 205.613281 124.945312 206.472656 124.132812 206.660156 123.621094 C 207.054688 122.558594 207.671875 90.082031 207.746094 66.585938 L 207.792969 50.671875 L 206.535156 48.859375 C 205.644531 47.570312 204.808594 46.917969 203.671875 46.609375 C 202.9375 46.414062 200.042969 46.296875 195.839844 46.285156 Z M 139.75 47.789062 L 135.789062 51.046875 L 135.644531 86.816406 C 135.550781 110.730469 135.664062 123.078125 135.992188 124.066406 C 136.652344 126.0625 138.449219 127.445312 140.851562 127.808594 C 141.945312 127.972656 147.179688 128.078125 152.484375 128.042969 C 161.546875 127.980469 162.222656 127.921875 163.796875 127.058594 C 167.007812 125.300781 166.824219 127.644531 166.824219 88.027344 C 166.824219 68.292969 166.664062 51.675781 166.46875 51.105469 C 166.273438 50.535156 165.339844 49.558594 164.394531 48.929688 L 162.675781 47.789062 Z M 220.136719 48.179688 L 218.15625 49.773438 L 216.175781 51.371094 L 216.03125 86.246094 C 215.953125 105.429688 216.007812 121.679688 216.152344 122.363281 C 216.296875 123.042969 217.015625 124.21875 217.746094 124.976562 C 218.800781 126.066406 219.558594 126.417969 221.386719 126.652344 C 222.660156 126.816406 227.929688 126.917969 233.101562 126.878906 C 243.535156 126.796875 244.523438 126.585938 246.324219 124.015625 C 247.175781 122.800781 247.210938 121.316406 247.210938 87.394531 C 247.210938 54 247.164062 51.964844 246.355469 50.6875 C 244.90625 48.386719 243.640625 48.179688 231.21875 48.179688 Z M 111.046875 48.9375 C 105.175781 48.90625 99.261719 49.050781 98.09375 49.386719 C 97.078125 49.679688 96.195312 50.441406 95.308594 51.789062 L 94.011719 53.765625 L 94.070312 75.964844 C 94.101562 88.175781 94.265625 104.179688 94.4375 111.53125 L 94.753906 124.898438 L 96.3125 126.1875 C 97.230469 126.953125 98.644531 127.605469 99.761719 127.78125 C 102.171875 128.167969 114.207031 128.199219 119.515625 127.835938 C 123.230469 127.578125 123.714844 127.441406 125.179688 126.226562 L 126.785156 124.898438 L 126.921875 88.953125 C 127.074219 48.84375 127.222656 50.71875 123.757812 49.519531 C 122.75 49.171875 116.917969 48.96875 111.046875 48.9375 Z M 273.375 67.667969 C 263.070312 67.667969 262.511719 67.710938 261.359375 68.566406 C 259.042969 70.285156 259.097656 69.644531 259.101562 96.316406 C 259.101562 109.957031 259.277344 121.867188 259.492188 122.78125 C 259.960938 124.808594 260.601562 125.488281 262.761719 126.257812 C 264.808594 126.988281 280.246094 127.125 282.730469 126.433594 C 283.625 126.183594 284.972656 125.433594 285.722656 124.761719 L 287.089844 123.539062 L 287.363281 111.210938 C 287.515625 104.429688 287.660156 92.867188 287.683594 85.511719 C 287.734375 72.152344 287.730469 72.140625 286.722656 70.539062 C 284.847656 67.570312 285.304688 67.667969 273.375 67.667969 Z M 273.375 67.667969"/> <path style="fill:rgb(0%,0%,0%)" d="M 73.308594 360.335938 C 70.886719 359.683594 68.808594 358.050781 67.527344 355.796875 L 66.433594 353.867188 L 66.433594 30.238281 L 67.214844 28.808594 C 68.367188 26.683594 69.976562 25.109375 71.890625 24.222656 L 73.59375 23.4375 L 277.640625 23.25 L 297.601562 43.210938 L 317.566406 63.171875 L 317.5625 207.804688 C 317.5625 305.136719 317.441406 352.863281 317.195312 353.75 C 316.566406 356.019531 314.695312 358.363281 312.554688 359.5625 L 310.585938 360.667969 L 192.804688 360.734375 C 97.332031 360.789062 74.699219 360.714844 73.304688 360.335938 Z M 280.398438 334.4375 C 284.738281 332.300781 287.617188 328.828125 288.785156 324.320312 C 289.34375 322.171875 289.367188 315.785156 289.136719 235.210938 C 288.996094 187.476562 288.804688 148.289062 288.707031 148.128906 C 288.472656 147.753906 94.632812 147.75 94.402344 148.125 C 94.304688 148.28125 94.113281 187.066406 93.972656 234.3125 C 93.785156 298.972656 93.824219 320.867188 94.140625 322.851562 C 95.0625 328.699219 98.964844 333.328125 104.445312 335.085938 C 106.457031 335.730469 109.472656 335.75 192.277344 335.679688 L 278.023438 335.609375 L 280.398438 334.441406 Z M 120.53125 124.726562 C 121.074219 124.320312 121.851562 123.542969 122.257812 123 C 122.992188 122.019531 122.996094 121.722656 123.089844 87.941406 C 123.175781 56.019531 123.144531 53.789062 122.550781 52.640625 C 122.207031 51.964844 121.46875 51.078125 120.914062 50.671875 C 119.960938 49.972656 119.363281 49.921875 110.351562 49.828125 C 99.351562 49.714844 98.9375 49.804688 97.488281 52.625 L 96.683594 54.199219 L 96.683594 87.328125 C 96.683594 107.804688 96.816406 120.925781 97.035156 121.675781 C 97.226562 122.347656 97.75 123.292969 98.195312 123.777344 C 99.832031 125.554688 100.472656 125.644531 110.351562 125.550781 C 119.003906 125.472656 119.601562 125.421875 120.53125 124.726562 Z M 161.128906 124.824219 C 162.140625 124.289062 162.9375 123.511719 163.421875 122.585938 C 164.160156 121.179688 164.164062 120.898438 164.164062 87.277344 C 164.164062 53.445312 164.164062 53.378906 163.417969 52.371094 C 163.003906 51.816406 162.136719 51 161.484375 50.554688 C 160.332031 49.769531 160.058594 49.75 150.921875 49.75 C 141.78125 49.75 141.507812 49.769531 140.355469 50.554688 C 139.703125 51 138.835938 51.816406 138.421875 52.371094 C 137.679688 53.378906 137.675781 53.53125 137.578125 86.675781 C 137.515625 108.558594 137.605469 120.433594 137.847656 121.328125 C 138.050781 122.074219 138.5625 123.128906 138.988281 123.671875 C 140.410156 125.480469 141.230469 125.617188 150.773438 125.628906 C 159.273438 125.644531 159.632812 125.617188 161.128906 124.824219 Z M 202.566406 124.632812 C 205.136719 122.796875 204.964844 125.296875 205.074219 87.875 L 205.171875 54.226562 L 204.359375 52.640625 C 202.902344 49.800781 202.5 49.714844 191.488281 49.828125 C 182.476562 49.921875 181.878906 49.972656 180.925781 50.671875 C 180.371094 51.078125 179.636719 51.964844 179.292969 52.640625 C 178.710938 53.78125 178.664062 56.1875 178.664062 87.496094 C 178.664062 120.667969 178.675781 121.144531 179.398438 122.640625 C 179.917969 123.714844 180.570312 124.375 181.636719 124.910156 C 183.066406 125.632812 183.582031 125.664062 192.269531 125.566406 C 201.175781 125.46875 201.425781 125.445312 202.566406 124.632812 Z M 242.273438 125.261719 C 243.648438 124.742188 244.886719 123.546875 245.46875 122.183594 C 245.863281 121.261719 245.957031 114.785156 245.976562 87.34375 C 246 55.515625 245.964844 53.574219 245.359375 52.535156 C 245.003906 51.929688 244.261719 51.097656 243.703125 50.683594 C 242.746094 49.96875 242.207031 49.921875 233.132812 49.824219 C 223.664062 49.71875 223.554688 49.726562 222.359375 50.539062 C 221.695312 50.992188 220.816406 51.816406 220.402344 52.371094 C 219.660156 53.378906 219.65625 53.53125 219.558594 86.675781 C 219.496094 108.558594 219.585938 120.433594 219.828125 121.328125 C 220.296875 123.074219 221.449219 124.527344 222.847656 125.136719 C 224.246094 125.746094 240.71875 125.851562 242.273438 125.261719 Z M 283.921875 124.839844 C 284.863281 124.363281 285.804688 123.523438 286.234375 122.78125 C 286.9375 121.5625 286.960938 120.867188 287.054688 98.617188 L 287.152344 75.703125 L 286.339844 74.121094 C 284.882812 71.28125 284.480469 71.195312 273.46875 71.308594 C 264.402344 71.402344 263.867188 71.445312 262.90625 72.160156 C 262.351562 72.578125 261.605469 73.414062 261.246094 74.027344 C 260.636719 75.070312 260.601562 76.527344 260.632812 98.332031 C 260.671875 124.421875 260.546875 123.226562 263.363281 124.832031 C 264.707031 125.601562 265.117188 125.632812 273.546875 125.640625 C 281.953125 125.644531 282.398438 125.609375 283.921875 124.839844 Z M 283.921875 124.839844"/> <path style="fill-rule:evenodd;fill:rgb(83.137%,9.803%,9.803%)" d="M 94.035156 147.832031 L 289.050781 147.832031 L 289.050781 219.777344 L 94.035156 219.777344 Z M 94.035156 147.832031"/> </g> </svg>

<svg width="384pt" height="384pt" version="1.1" viewBox="0 0 384 384" xmlns="http://www.w3.org/2000/svg"><path d="m103.43 338.25c-4.793-0.30078-7.3086-1.3945-10.133-4.3945-2.6523-2.8164-3.9102-5.8047-4.3359-10.277-0.41406-4.3438-0.51172-95.164-0.11328-103.14l0.26562-5.2852h203.73v54.23c0 34.949-0.14844 55.02-0.41406 56.449-0.89062 4.7734-3.3945 8.1797-8.0664 10.965l-3.1016 1.8477-86.879-0.070313c-47.785-0.039062-88.715-0.18359-90.953-0.32812z" fill="#fff"/><path d="m195.84 46.285c-1.4023-0.003906-2.9453 0.003906-4.6055 0.023438-10.836 0.13281-10.84 0.13281-12.066 1.168-0.67578 0.57031-1.418 1.4766-1.6484 2.0156-0.46875 1.1016-0.58984 70.801-0.125 72.898 0.35547 1.6172 2.1094 3.2773 4.0273 3.8242 0.82031 0.23047 5.7188 0.33594 11.594 0.24609 9.3789-0.14844 10.293-0.22656 11.734-1.0352 0.86328-0.48047 1.7227-1.293 1.9102-1.8047 0.39453-1.0625 1.0117-33.539 1.0859-57.035l0.046875-15.914-1.2578-1.8125c-0.89062-1.2891-1.7266-1.9414-2.8633-2.25-0.73438-0.19531-3.6289-0.3125-7.832-0.32422zm-56.09 1.5039-3.9609 3.2578-0.14453 35.77c-0.09375 23.914 0.019531 36.262 0.34766 37.25 0.66016 1.9961 2.457 3.3789 4.8594 3.7422 1.0938 0.16406 6.3281 0.26953 11.633 0.23438 9.0625-0.0625 9.7383-0.12109 11.312-0.98438 3.2109-1.7578 3.0273 0.58594 3.0273-39.031 0-19.734-0.16016-36.352-0.35547-36.922-0.19531-0.57031-1.1289-1.5469-2.0742-2.1758l-1.7188-1.1406zm80.387 0.39063-1.9805 1.5938-1.9805 1.5977-0.14453 34.875c-0.078125 19.184-0.023438 35.434 0.12109 36.117 0.14453 0.67969 0.86328 1.8555 1.5938 2.6133 1.0547 1.0898 1.8125 1.4414 3.6406 1.6758 1.2734 0.16406 6.543 0.26562 11.715 0.22656 10.434-0.082031 11.422-0.29297 13.223-2.8633 0.85156-1.2148 0.88672-2.6992 0.88672-36.621 0-33.395-0.046876-35.43-0.85547-36.707-1.4492-2.3008-2.7148-2.5078-15.137-2.5078zm-109.09 0.75781c-5.8711-0.03125-11.785 0.11328-12.953 0.44922-1.0156 0.29297-1.8984 1.0547-2.7852 2.4023l-1.2969 1.9766 0.058593 22.199c0.03125 12.211 0.19531 28.215 0.36719 35.566l0.31641 13.367 1.5586 1.2891c0.91797 0.76562 2.332 1.418 3.4492 1.5938 2.4102 0.38672 14.445 0.41797 19.754 0.054688 3.7148-0.25781 4.1992-0.39453 5.6641-1.6094l1.6055-1.3281 0.13672-35.945c0.15234-40.109 0.30078-38.234-3.1641-39.434-1.0078-0.34766-6.8398-0.55078-12.711-0.58203zm162.33 18.73c-10.305 0-10.863 0.042969-12.016 0.89844-2.3164 1.7188-2.2617 1.0781-2.2578 27.75 0 13.641 0.17578 25.551 0.39063 26.465 0.46875 2.0273 1.1094 2.707 3.2695 3.4766 2.0469 0.73047 17.484 0.86719 19.969 0.17578 0.89453-0.25 2.2422-1 2.9922-1.6719l1.3672-1.2227 0.27344-12.328c0.15234-6.7812 0.29688-18.344 0.32031-25.699 0.050781-13.359 0.046875-13.371-0.96094-14.973-1.875-2.9688-1.418-2.8711-13.348-2.8711z" fill="#ffc62f"/><path d="m73.309 360.34c-2.4219-0.65234-4.5-2.2852-5.7812-4.5391l-1.0938-1.9297v-323.63l0.78125-1.4297c1.1523-2.125 2.7617-3.6992 4.6758-4.5859l1.7031-0.78516 204.05-0.1875 19.961 19.961 19.965 19.961-0.003906 144.63c0 97.332-0.12109 145.06-0.36719 145.95-0.62891 2.2695-2.5 4.6133-4.6406 5.8125l-1.9688 1.1055-117.78 0.066406c-95.473 0.054687-118.11-0.019531-119.5-0.39844zm207.09-25.898c4.3398-2.1367 7.2188-5.6094 8.3867-10.117 0.55859-2.1484 0.58203-8.5352 0.35156-89.109-0.14062-47.734-0.33203-86.922-0.42969-87.082-0.23438-0.375-194.07-0.37891-194.3-0.003906-0.097656 0.15625-0.28906 38.941-0.42969 86.188-0.1875 64.66-0.14844 86.555 0.16797 88.539 0.92188 5.8477 4.8242 10.477 10.305 12.234 2.0117 0.64453 5.0273 0.66406 87.832 0.59375l85.746-0.070313 2.375-1.168zm-159.87-209.71c0.54297-0.40625 1.3203-1.1836 1.7266-1.7266 0.73438-0.98047 0.73828-1.2773 0.83203-35.059 0.085937-31.922 0.054687-34.152-0.53906-35.301-0.34375-0.67578-1.082-1.5625-1.6367-1.9688-0.95312-0.69922-1.5508-0.75-10.562-0.84375-11-0.11328-11.414-0.023437-12.863 2.7969l-0.80469 1.5742v33.129c0 20.477 0.13281 33.598 0.35156 34.348 0.19141 0.67188 0.71484 1.6172 1.1602 2.1016 1.6367 1.7773 2.2773 1.8672 12.156 1.7734 8.6523-0.078125 9.25-0.12891 10.18-0.82422zm40.598 0.097657c1.0117-0.53516 1.8086-1.3125 2.293-2.2383 0.73828-1.4062 0.74219-1.6875 0.74219-35.309 0-33.832 0-33.898-0.74609-34.906-0.41406-0.55469-1.2812-1.3711-1.9336-1.8164-1.1523-0.78516-1.4258-0.80469-10.562-0.80469-9.1406 0-9.4141 0.019531-10.566 0.80469-0.65234 0.44531-1.5195 1.2617-1.9336 1.8164-0.74219 1.0078-0.74609 1.1602-0.84375 34.305-0.0625 21.883 0.027344 33.758 0.26953 34.652 0.20312 0.74609 0.71484 1.8008 1.1406 2.3438 1.4219 1.8086 2.2422 1.9453 11.785 1.957 8.5 0.015625 8.8594-0.011718 10.355-0.80469zm41.438-0.19141c2.5703-1.8359 2.3984 0.66406 2.5078-36.758l0.097656-33.648-0.8125-1.5859c-1.457-2.8398-1.8594-2.9258-12.871-2.8125-9.0117 0.09375-9.6094 0.14453-10.562 0.84375-0.55469 0.40625-1.2891 1.293-1.6328 1.9688-0.58203 1.1406-0.62891 3.5469-0.62891 34.855 0 33.172 0.011719 33.648 0.73438 35.145 0.51953 1.0742 1.1719 1.7344 2.2383 2.2695 1.4297 0.72266 1.9453 0.75391 10.633 0.65625 8.9062-0.097656 9.1562-0.12109 10.297-0.93359zm39.707 0.62891c1.375-0.51953 2.6133-1.7148 3.1953-3.0781 0.39453-0.92188 0.48828-7.3984 0.50781-34.84 0.023438-31.828-0.011718-33.77-0.61719-34.809-0.35547-0.60547-1.0977-1.4375-1.6562-1.8516-0.95703-0.71484-1.4961-0.76172-10.57-0.85938-9.4688-0.10547-9.5781-0.097657-10.773 0.71484-0.66406 0.45313-1.543 1.2773-1.957 1.832-0.74219 1.0078-0.74609 1.1602-0.84375 34.305-0.0625 21.883 0.027344 33.758 0.26953 34.652 0.46875 1.7461 1.6211 3.1992 3.0195 3.8086 1.3984 0.60938 17.871 0.71484 19.426 0.125zm41.648-0.42188c0.94141-0.47656 1.8828-1.3164 2.3125-2.0586 0.70312-1.2188 0.72656-1.9141 0.82031-24.164l0.097656-22.914-0.8125-1.582c-1.457-2.8398-1.8594-2.9258-12.871-2.8125-9.0664 0.09375-9.6016 0.13672-10.562 0.85156-0.55469 0.41797-1.3008 1.2539-1.6602 1.8672-0.60938 1.043-0.64453 2.5-0.61328 24.305 0.039063 26.09-0.085937 24.895 2.7305 26.5 1.3438 0.76953 1.7539 0.80078 10.184 0.80859 8.4062 0.003906 8.8516-0.03125 10.375-0.80078z"/><path d="m94.035 147.83h195.02v71.945h-195.02z" fill="#d31818" fill-rule="evenodd"/><path transform="scale(.75)" d="m422.93 461.67c-0.83854 3.026-3.3333 6.151-6.1875 7.75l-2.625 1.4746-157.04 0.0879c-127.25 0.0729-157.45-0.0265-159.33-0.53125h-0.0039c-3.2276-0.87045-5.9954-3.0467-7.7031-6.0508l-1.459-2.5742v10l1.459 2.5742c1.7077 3.0041 4.4755 5.1803 7.7031 6.0508h0.0039c1.8782 0.50478 32.075 0.60415 159.33 0.53125l157.04-0.0879 2.625-1.4746c2.8542-1.599 5.349-4.724 6.1875-7.75z" fill="#fff" opacity=".3" stroke-width="1.3333"/><path transform="scale(.75)" d="m370.19 31-272.06 0.25-2.2715 1.0469c-2.5521 1.1823-4.6979 3.2819-6.2344 6.1152l-1.041 1.9062v10l1.041-1.9062c1.5365-2.8333 3.6823-4.9329 6.2344-6.1152l2.2715-1.0469 272.06-0.25 26.615 26.615 26.619 26.613v-10l-26.619-26.613z" fill="#fff" opacity=".1" stroke-width="1.3333"/></svg>
